X: 43488
T: Yellow Tinker, The
R: reel
M: 4/4
K: Gmixolydian
|:DG (3G^FG D=F (3FEF|DG (3G^FG dGBG|DG (3G^FG D=F (3FEF|cAFA (3cec Bc:|
dG (3G^FG dGBc|dg (3g^fg edBc|dG (3G^FG dGBd|cAFA c2 Bc|
dG (3G^FG dGBc|dg (3g^fg edBd|g2ef gaba|g2fd edBc||
d2 BG (3Bcd BG|(3Bcd BG c2 Bc|d2 BG GABd|fdcA FAce|
d2 BG (3Bcd BG|(3Bcd BG c2 Bc|d^cde f3d|cAFA G4||

